X: 1407
T: Miss Patterson
R: reel
B: O'Neill's 1850 #1407
O: J.O'Neill
Z: Bob Safranek, rjs@gsp.org
Z: Compacted via repeats and multiple endings [JC]
M: C|
L: 1/8
K: Edor
|: B,EA,E B,EGE | FDA,D A,DFD |\
[1 B,EA,E B,EGE | FDB,D E2E2 :|\
[2 DFAD GBAc | dBAF E2E2 |]
|: ebgb f2eg | fdad bdad |\
[1 ebgb f2ef | dcdF E2E2 :|\
[2 GABc dcdB | AFdF E2E2 |]
